src/16/document-search-fill.svg

<svg xmlns="http://www.w3.org/2000/svg" width="16" height="16" focusable="false" viewBox="0 0 16 16">
  <path fill="currentColor" d="M12.7957375,7.85542409 C14.184341,9.05998036 14.4055415,11.1330834 13.3023608,12.603526 C13.320354,12.6175211 13.3383472,12.6335154 13.3553408,12.6495098 L15.847401,15.1416287 C15.9773303,15.2671216 16.0294387,15.4529576 15.9836982,15.6277106 C15.9379578,15.8024635 15.8014867,15.9389377 15.6267379,15.9846793 C15.4519891,16.0304208 15.2661575,15.9783112 15.1406676,15.8483789 L12.6486073,13.3562599 C12.632065,13.3396916 12.6167001,13.3219881 12.6026247,13.3032787 C11.1322167,14.4064854 9.05916246,14.1852797 7.85463456,12.7966434 C6.65010666,11.4080071 6.72396373,9.32444452 8.02379206,8.02458557 C9.32362038,6.72472662 11.4071339,6.65086781 12.7957375,7.85542409 Z M10.5004174,7.99815419 C9.11801768,7.99815419 7.9973613,9.11883698 7.9973613,10.5012693 C7.97925307,11.4072902 8.45223754,12.2523463 9.23397731,12.7106651 C10.0157171,13.1689838 10.9841181,13.1689838 11.7658579,12.7106651 C12.5475976,12.2523463 13.0205821,11.4072902 13.0024739,10.5012693 C13.0034735,9.11883698 11.8828171,7.99815419 10.5004174,7.99815419 Z M9.49679586,0.000981435985 C9.77669031,0.000981435985 9.99660738,0.220903687 9.99660738,0.500804733 L9.99660738,3.49974451 C9.99660738,4.32945119 10.6663548,4.99921441 11.4960419,4.99921441 L14.4949111,4.99921441 C14.7748055,4.99921441 14.9947226,5.21913666 14.9947226,5.4990377 L14.9947226,7.50832736 C14.9947226,7.77823194 14.7748055,7.99815419 14.5049073,7.99815419 C14.3412336,7.99588179 14.188072,7.91707938 14.0910634,7.78522946 C13.2408278,6.65927703 11.9113067,5.99783209 10.5004174,5.998861 C9.4706203,5.99728248 8.47167185,6.35027611 7.67148418,6.99850759 L4.49868065,6.99850759 C4.2187862,6.99850759 3.99886913,7.24841924 3.99886913,7.52832029 C3.99886913,7.80822133 4.2187862,7.99815419 4.49868065,7.99815419 L6.75782872,7.99815419 C6.54916554,8.30908011 6.38024855,8.64490708 6.25501833,8.99780078 L4.49868065,8.99780078 C4.22878243,8.99780078 3.99886913,9.21772303 3.99886913,9.49762408 C3.99886913,9.77752512 4.22878243,9.99744737 4.49868065,9.99744737 L6.02610466,9.99744737 C5.989045,10.3296141 5.98870977,10.6648538 6.02510503,10.997094 L4.49868065,10.997094 C4.22878243,10.997094 3.99886913,11.2170162 3.99886913,11.4969173 C3.99886913,11.7768183 4.22878243,11.9967406 4.49868065,11.9967406 L6.25201946,11.9967406 C6.81780611,13.6011733 8.68110346,14.7827556 10.4994178,14.9696895 C10.7738071,14.9925406 10.9870228,15.2182531 10.9942312,15.4935043 C10.9936799,15.7669503 10.7718582,15.98833 10.4984181,15.9883294 L1.99962304,15.9953269 C1.44983037,15.9953269 1,15.545486 1,14.9956803 L1,1.00062803 C1,0.450822403 1.44983037,0.000981435985 1.99962304,0.000981435985 L9.49679586,0.000981435985 Z M11.84591,0.150928425 L14.8447791,3.14986821 C15.1646585,3.45975865 14.9447414,3.99956781 14.4949111,3.99956781 L11.9958535,3.99956781 C11.4460608,3.99956781 10.9962304,3.54972684 10.9962304,2.99992122 L10.9962304,0.500804733 C10.9962304,0.0609602316 11.5360269,-0.168958485 11.84591,0.150928425 Z"/>
</svg>

<svg xmlns="http://www.w3.org/2000/svg" width="16" height="16" focusable="false" viewBox="0 0 16 16">
  <path fill="currentColor" d="M12.607 13.307a3.504 3.504 0 1 1 .7-.7c.018.014.036.03.053.046l2.493 2.493a.5.5 0 1 1-.707.707l-2.493-2.493a.503.503 0 0 1-.046-.053Zm.4-2.803a2.504 2.504 0 1 1-5.007 0 2.504 2.504 0 0 1 5.008 0Z"/>
  <path fill="currentColor" d="M10 .5v3c0 .83.67 1.5 1.5 1.5h3c.28 0 .5.22.5.5v2.01c0 .27-.22.49-.49.49a.523.523 0 0 1-.414-.213A4.497 4.497 0 0 0 10.504 6a4.485 4.485 0 0 0-2.83 1H4.5c-.28 0-.5.25-.5.53s.22.47.5.47h2.26a4.488 4.488 0 0 0-.503 1H4.5c-.27 0-.5.22-.5.5s.23.5.5.5h1.528a4.55 4.55 0 0 0-.001 1H4.5c-.27 0-.5.22-.5.5s.23.5.5.5h1.754c.566 1.605 2.43 2.787 4.249 2.974a.54.54 0 0 1 .495.524.496.496 0 0 1-.496.495L2 16c-.55 0-1-.45-1-1V1c0-.55.45-1 1-1h7.5c.28 0 .5.22.5.5Z"/>
  <path fill="currentColor" d="M11 3V.5c0-.44.54-.67.85-.35l3 3c.32.31.1.85-.35.85H12c-.55 0-1-.45-1-1Z"/>
</svg>
